public/icons/rust.svg

<svg width="64" height="64" viewBox="0 0 64 64" fill="none" xmlns="http://www.w3.org/2000/svg">
<g clip-path="url(#clip0_88_1329)">
<path d="M29.9999 7.53956C29.9999 7.28979 30.0491 7.04246 30.1447 6.8117C30.2403 6.58094 30.3804 6.37126 30.557 6.19465C30.7336 6.01803 30.9433 5.87793 31.174 5.78235C31.4048 5.68676 31.6521 5.63756 31.9019 5.63756C32.1517 5.63756 32.399 5.68676 32.6298 5.78235C32.8605 5.87793 33.0702 6.01803 33.2468 6.19465C33.4234 6.37126 33.5635 6.58094 33.6591 6.8117C33.7547 7.04246 33.8039 7.28979 33.8039 7.53956C33.8039 8.04401 33.6035 8.52779 33.2468 8.88448C32.8901 9.24118 32.4063 9.44156 31.9019 9.44156C31.3975 9.44156 30.9137 9.24118 30.557 8.88448C30.2003 8.52779 29.9999 8.04401 29.9999 7.53956ZM7.30791 24.7596C7.30791 24.5098 7.3571 24.2625 7.45269 24.0317C7.54827 23.8009 7.68837 23.5913 7.86499 23.4146C8.04161 23.238 8.25128 23.0979 8.48204 23.0023C8.7128 22.9068 8.96013 22.8576 9.20991 22.8576C9.45968 22.8576 9.70701 22.9068 9.93777 23.0023C10.1685 23.0979 10.3782 23.238 10.5548 23.4146C10.7314 23.5913 10.8715 23.8009 10.9671 24.0317C11.0627 24.2625 11.1119 24.5098 11.1119 24.7596C11.1119 25.264 10.9115 25.7478 10.5548 26.1045C10.1981 26.4612 9.71435 26.6616 9.20991 26.6616C8.70547 26.6616 8.22168 26.4612 7.86499 26.1045C7.50829 25.7478 7.30791 25.264 7.30791 24.7596ZM52.6919 24.8476C52.6919 24.3431 52.8923 23.8593 53.249 23.5026C53.6057 23.146 54.0895 22.9456 54.5939 22.9456C55.0983 22.9456 55.5821 23.146 55.9388 23.5026C56.2955 23.8593 56.4959 24.3431 56.4959 24.8476C56.4959 25.352 56.2955 25.8358 55.9388 26.1925C55.5821 26.5492 55.0983 26.7496 54.5939 26.7496C54.0895 26.7496 53.6057 26.5492 53.249 26.1925C52.8923 25.8358 52.6919 25.352 52.6919 24.8476ZM12.8119 27.4596C13.2322 27.2719 13.561 26.9253 13.7263 26.4957C13.8916 26.0661 13.8799 25.5886 13.6939 25.1676L12.8499 23.2596H16.1699V38.2196H9.47191C8.64546 35.3163 8.38807 32.2806 8.71391 29.2796L12.8119 27.4596ZM26.6959 27.8276V23.4176H34.5999C35.0079 23.4176 37.4799 23.8896 37.4799 25.7376C37.4799 27.2736 35.5799 27.8256 34.0199 27.8256L26.6959 27.8276ZM15.9039 51.5696C15.9039 51.3198 15.9531 51.0725 16.0487 50.8417C16.1443 50.6109 16.2844 50.4013 16.461 50.2246C16.6376 50.048 16.8473 49.9079 17.078 49.8123C17.3088 49.7168 17.5561 49.6676 17.8059 49.6676C18.0557 49.6676 18.303 49.7168 18.5338 49.8123C18.7645 49.9079 18.9742 50.048 19.1508 50.2246C19.3274 50.4013 19.4675 50.6109 19.5631 50.8417C19.6587 51.0725 19.7079 51.3198 19.7079 51.5696C19.7079 52.074 19.5075 52.5578 19.1508 52.9145C18.7941 53.2712 18.3103 53.4716 17.8059 53.4716C17.3015 53.4716 16.8177 53.2712 16.461 52.9145C16.1043 52.5578 15.9039 52.074 15.9039 51.5696ZM44.0899 51.6576C44.0899 51.1531 44.2903 50.6693 44.647 50.3126C45.0037 49.956 45.4875 49.7556 45.9919 49.7556C46.4963 49.7556 46.9801 49.956 47.3368 50.3126C47.6935 50.6693 47.8939 51.1531 47.8939 51.6576C47.8939 52.162 47.6935 52.6458 47.3368 53.0025C46.9801 53.3592 46.4963 53.5596 45.9919 53.5596C45.4875 53.5596 45.0037 53.3592 44.647 53.0025C44.2903 52.6458 44.0899 52.162 44.0899 51.6576ZM44.6779 47.3436C43.7379 47.1436 42.8179 47.7396 42.6179 48.6776L41.6639 53.1336C38.5936 54.5242 35.2592 55.2357 31.8886 55.2195C28.5181 55.2033 25.1907 54.4597 22.1339 53.0396L21.1799 48.5836C20.9799 47.6436 20.0599 47.0476 19.1199 47.2496L15.1859 48.0936C14.455 47.3407 13.7754 46.5396 13.1519 45.6956H32.2919C32.5079 45.6956 32.6519 45.6556 32.6519 45.4596V38.6896C32.6519 38.4896 32.5079 38.4536 32.2919 38.4536H26.6919V34.1616H32.7459C33.2979 34.1616 35.6999 34.3216 36.4699 37.3896L37.5999 42.3896C37.9599 43.4896 39.4259 45.6956 40.9859 45.6956H50.8659C50.2028 46.5825 49.4777 47.4213 48.6959 48.2056L44.6779 47.3436ZM55.3059 29.4676C55.4404 30.8189 55.4571 32.1793 55.3559 33.5336H52.9559C52.7159 33.5336 52.6159 33.6936 52.6159 33.9276V35.0316C52.6159 37.6316 51.1519 38.1916 49.8679 38.3376C48.6479 38.4776 47.2879 37.8256 47.1239 37.0776C46.4039 33.0216 45.2039 32.1576 43.3239 30.6576C45.6779 29.1616 48.1279 26.9576 48.1279 24.0036C48.1279 20.8156 45.9419 18.8076 44.4519 17.8236C42.3619 16.4436 40.0479 16.1696 39.4239 16.1696H14.5539C17.9892 12.3311 22.5943 9.73226 27.6559 8.77556L30.5859 11.8496C31.2459 12.5436 32.3459 12.5696 33.0379 11.9056L36.3179 8.77156C39.659 9.39716 42.8239 10.7425 45.5927 12.7143C48.3616 14.686 50.668 17.2368 52.3519 20.1896L50.1079 25.2576C49.9219 25.6786 49.9102 26.1561 50.0755 26.5857C50.2409 27.0153 50.5696 27.3619 50.9899 27.5496L55.3059 29.4676ZM60.9019 29.5476L60.8259 28.7636L63.1379 26.6076C63.6079 26.1676 63.4319 25.2876 62.8319 25.0636L59.8779 23.9596L59.6459 23.1996L61.4859 20.6396C61.8619 20.1196 61.5159 19.2896 60.8859 19.1856L57.7699 18.6796L57.3959 17.9796L58.7059 15.1056C58.9739 14.5196 58.4759 13.7716 57.8319 13.7956L54.6719 13.9056L54.1719 13.2996L54.8979 10.2196C55.0439 9.59356 54.4099 8.95956 53.7839 9.10556L50.7039 9.83156L50.0959 9.33156L50.2059 6.17156C50.2299 5.53156 49.4819 5.03156 48.8979 5.29756L46.0259 6.60756L45.3259 6.23156L44.8179 3.11556C44.7179 2.48356 43.8839 2.13956 43.3639 2.51556L40.8039 4.35556L40.0439 4.12556L38.9399 1.17156C38.7159 0.571564 37.8339 0.395564 37.3959 0.863564L35.2399 3.17556L34.4559 3.09956L32.7919 0.409564C32.4559 -0.134436 31.5519 -0.134436 31.2179 0.409564L29.5539 3.09956L28.7699 3.17556L26.6099 0.859564C26.1699 0.391564 25.2899 0.565564 25.0659 1.16756L23.9619 4.12156L23.2019 4.35156L20.6419 2.51156C20.1219 2.13556 19.2899 2.48156 19.1879 3.11156L18.6799 6.22756L17.9799 6.60356L15.1079 5.29356C14.5239 5.02756 13.7739 5.52756 13.7999 6.16756L13.9099 9.32756L13.3019 9.82756L10.2219 9.10156C9.59591 8.95556 8.96191 9.58956 9.10791 10.2156L9.83391 13.2956L9.33391 13.9016L6.17391 13.7916C5.53391 13.7716 5.03391 14.5156 5.29991 15.1016L6.60991 17.9756L6.23391 18.6756L3.11791 19.1816C2.48591 19.2816 2.14191 20.1156 2.51791 20.6356L4.35791 23.1956L4.12591 23.9556L1.17191 25.0596C0.571906 25.2836 0.395906 26.1656 0.865906 26.6036L3.17791 28.7596L3.10191 29.5436L0.411906 31.2076C-0.132094 31.5436 -0.132094 32.4476 0.411906 32.7816L3.10191 34.4456L3.17791 35.2296L0.859906 37.3936C0.391906 37.8336 0.565906 38.7136 1.16591 38.9376L4.11991 40.0416L4.35191 40.8016L2.51191 43.3616C2.13791 43.8816 2.48191 44.7136 3.11191 44.8156L6.22591 45.3216L6.60191 46.0216L5.29191 48.8936C5.02591 49.4776 5.52791 50.2276 6.16591 50.2036L9.32591 50.0936L9.82591 50.7016L9.09991 53.7816C8.95391 54.4056 9.58791 55.0416 10.2139 54.8936L13.2939 54.1676L13.9019 54.6676L13.7919 57.8276C13.7679 58.4676 14.5159 58.9676 15.0999 58.7016L17.9719 57.3916L18.6719 57.7676L19.1799 60.8816C19.2799 61.5156 20.1139 61.8576 20.6339 61.4856L23.1939 59.6416L23.9539 59.8736L25.0579 62.8276C25.2819 63.4276 26.1639 63.6036 26.6019 63.1336L28.7579 60.8216L29.5419 60.9016L31.2059 63.5916C31.5419 64.1316 32.4419 64.1356 32.7799 63.5916L34.4439 60.9016L35.2279 60.8216L37.3839 63.1336C37.8239 63.6036 38.7039 63.4276 38.9279 62.8276L40.0319 59.8736L40.7919 59.6416L43.3519 61.4856C43.8719 61.8596 44.7039 61.5156 44.8059 60.8816L45.3139 57.7676L46.0139 57.3916L48.8859 58.7016C49.4699 58.9676 50.2179 58.4696 50.1939 57.8276L50.0839 54.6676L50.6899 54.1676L53.7699 54.8936C54.3959 55.0396 55.0299 54.4056 54.8839 53.7816L54.1579 50.7016L54.6579 50.0936L57.8179 50.2036C58.4579 50.2296 58.9579 49.4776 58.6919 48.8936L57.3819 46.0216L57.7559 45.3216L60.8719 44.8156C61.5059 44.7156 61.8519 43.8836 61.4719 43.3616L59.6319 40.8016L59.8639 40.0416L62.8179 38.9376C63.4179 38.7116 63.5939 37.8316 63.1239 37.3936L60.8119 35.2376L60.8879 34.4536L63.5779 32.7896C64.1219 32.4536 64.1239 31.5536 63.5779 31.2156L60.9019 29.5476Z" fill="white"/>
</g>
<defs>
<clipPath id="clip0_88_1329">
<rect width="64" height="64" fill="white"/>
</clipPath>
</defs>
</svg>

<svg xmlns="http://www.w3.org/2000/svg" width="64" height="64" fill="none"><g clip-path="url(#a)"><path fill="#fff" d="M30 7.54a1.902 1.902 0 1 1 3.803 0 1.902 1.902 0 0 1-3.803 0ZM7.308 24.76a1.902 1.902 0 1 1 3.804 0 1.902 1.902 0 0 1-3.804 0Zm45.384.088a1.902 1.902 0 1 1 3.804 0 1.902 1.902 0 0 1-3.804 0Zm-39.88 2.612a1.74 1.74 0 0 0 .882-2.292l-.844-1.908h3.32v14.96H9.472a23.42 23.42 0 0 1-.758-8.94l4.098-1.82Zm13.884.368v-4.41H34.6c.408 0 2.88.472 2.88 2.32 0 1.536-1.9 2.088-3.46 2.088l-7.324.002ZM15.904 51.57a1.902 1.902 0 1 1 3.804 0 1.902 1.902 0 0 1-3.804 0Zm28.186.088a1.902 1.902 0 1 1 3.804 0 1.902 1.902 0 0 1-3.804 0Zm.588-4.314c-.94-.2-1.86.396-2.06 1.334l-.954 4.456a23.42 23.42 0 0 1-19.53-.094l-.954-4.456a1.73 1.73 0 0 0-2.06-1.334l-3.934.844a23.429 23.429 0 0 1-2.034-2.398h19.14c.216 0 .36-.04.36-.236v-6.77c0-.2-.144-.236-.36-.236h-5.6v-4.292h6.054c.552 0 2.954.16 3.724 3.228l1.13 5c.36 1.1 1.826 3.306 3.386 3.306h9.88a23.419 23.419 0 0 1-2.17 2.51l-4.018-.862Zm10.628-17.876c.134 1.35.151 2.711.05 4.066h-2.4c-.24 0-.34.16-.34.394v1.104c0 2.6-1.464 3.16-2.748 3.306-1.22.14-2.58-.512-2.744-1.26-.72-4.056-1.92-4.92-3.8-6.42 2.354-1.496 4.804-3.7 4.804-6.654 0-3.188-2.186-5.196-3.676-6.18-2.09-1.38-4.404-1.654-5.028-1.654h-24.87a23.42 23.42 0 0 1 13.102-7.394l2.93 3.074c.66.694 1.76.72 2.452.056l3.28-3.134A23.419 23.419 0 0 1 52.352 20.19l-2.244 5.068a1.74 1.74 0 0 0 .882 2.292l4.316 1.918Zm5.596.08-.076-.784 2.312-2.156c.47-.44.294-1.32-.306-1.544l-2.954-1.104-.232-.76 1.84-2.56c.376-.52.03-1.35-.6-1.454l-3.116-.506-.374-.7 1.31-2.874c.268-.586-.23-1.334-.874-1.31l-3.16.11-.5-.606.726-3.08c.146-.626-.488-1.26-1.114-1.114l-3.08.726-.608-.5.11-3.16c.024-.64-.724-1.14-1.308-.874l-2.872 1.31-.7-.376-.508-3.116c-.1-.632-.934-.976-1.454-.6l-2.56 1.84-.76-.23-1.104-2.954c-.224-.6-1.106-.776-1.544-.308L35.24 3.176l-.784-.076L32.792.41c-.336-.544-1.24-.544-1.574 0L29.554 3.1l-.784.076L26.61.86c-.44-.468-1.32-.294-1.544.308l-1.104 2.954-.76.23-2.56-1.84c-.52-.376-1.352-.03-1.454.6l-.508 3.116-.7.376-2.872-1.31c-.584-.266-1.334.234-1.308.874l.11 3.16-.608.5-3.08-.726c-.626-.146-1.26.488-1.114 1.114l.726 3.08-.5.606-3.16-.11c-.64-.02-1.14.724-.874 1.31l1.31 2.874-.376.7-3.116.506c-.632.1-.976.934-.6 1.454l1.84 2.56-.232.76-2.954 1.104c-.6.224-.776 1.106-.306 1.544l2.312 2.156-.076.784-2.69 1.664c-.544.336-.544 1.24 0 1.574l2.69 1.664.076.784L.86 37.394c-.468.44-.294 1.32.306 1.544l2.954 1.104.232.76-1.84 2.56c-.374.52-.03 1.352.6 1.454l3.114.506.376.7-1.31 2.872c-.266.584.236 1.334.874 1.31l3.16-.11.5.608-.726 3.08c-.146.624.488 1.26 1.114 1.112l3.08-.726.608.5-.11 3.16c-.024.64.724 1.14 1.308.874l2.872-1.31.7.376.508 3.114c.1.634.934.976 1.454.604l2.56-1.844.76.232 1.104 2.954c.224.6 1.106.776 1.544.306l2.156-2.312.784.08 1.664 2.69c.336.54 1.236.544 1.574 0l1.664-2.69.784-.08 2.156 2.312c.44.47 1.32.294 1.544-.306l1.104-2.954.76-.232 2.56 1.844c.52.374 1.352.03 1.454-.604l.508-3.114.7-.376 2.872 1.31c.584.266 1.332-.232 1.308-.874l-.11-3.16.606-.5 3.08.726c.626.146 1.26-.488 1.114-1.112l-.726-3.08.5-.608 3.16.11c.64.026 1.14-.726.874-1.31l-1.31-2.872.374-.7 3.116-.506c.634-.1.98-.932.6-1.454l-1.84-2.56.232-.76 2.954-1.104c.6-.226.776-1.106.306-1.544l-2.312-2.156.076-.784 2.69-1.664c.544-.336.546-1.236 0-1.574l-2.676-1.668Z"/></g><defs><clipPath id="a"><path fill="#fff" d="M0 0h64v64H0z"/></clipPath></defs></svg>
